!!!OTL: ES STEHT SICH AUF UNSERER WIESEN
!!!ARE: Europa, Mitteleuropa, Deutschland, Rheinland
!!!SCT: E0966
!!!YEM: Copyright 1995, estate of Helmut Schaffrath.
**kern
*ICvox
*Ivox
*M6/8
*k[f#]
*G:
{8d
=1
8g
8b
8b
8b
8a
8b
=2
4.g
8g
8f#}
{8e
=3
8d
8e
8f#
4g}
{8g
=4
4b
8b
8b
8a
8b
=5
4.cc
8b
8r}
{8b
=6
8a
8a
8a
8a
8a
8b
=7
8g
8g
8g
8g
8f#}
{8e
=8
8d
8f#
8g
4a
8b
=9
4g
4.r}
==
!!!AGN: Tanz - Lied, Reigen, Mai - Tanz
!!!ONB: ESAC (Essen Associative Code) Database: ERK2
!!!AMT: compound duple
!!!AIN: vox
!!!EED: Helmut Schaffrath
!!!EEV: 1.0
*-
